!!!COM: Georges Bizet
!!!CNT: Francais
!!!TXO: Francais
!!!OTL: Vielle Chanson
!!!LYR: Charles Millevoye
!!!ENC: Jacob Pegg
!!!YOR: Romantic French Song 1830-1870 -David Tunley, ed.,
!!!YOR: New York: Garland Publishing, Inc., 1995, Vol. 4
!!!ODT: 1865/
!!NB: Vocal melody and text only encoded.
!!NB: First instance of melodic material only encoded.
**kern	**silbe
*clef G2	*
*k[b-e-a-d-]	*
*M4/4	*
=5	=5
2r	.
4r	.
{8.a-	{Dans
16b-	les
=6	=6
2cc	bois
8cc	l'a-
8ee-	-mo-
8dd-	-reux
8b-	Myr-
=7	=7
2a-}	-til}
4r	.
{8a-	{A-
8cc	vait
=8	=8
4.ee-	pris
8ee-	Fau-
(8ff	-vet-
8ee-)	|
8g	-te
8a-	le/-
=9	=9
2cc	-ge\-
4b-}	-re:}
4r	.
=10	=10
8r	.
{8dd-	{"Ai-
8cc	-ma-
8b-	-ble oi-
[4a-	-seau,"
8a-]}	|}
8r	.
=11	=11
8r	.
{8ff	{lui
8ee-	di-
8dd-	-sait~
16cc}	~il,}
16r	.
{8ddn	{"Je
8ff	te
8ee-	des-
=12	=12
8g	-tine
8a-	a\
8b-	ma
8cc	ber-
2f	-ge\-
=13	=13
[4e-	-re.
8e-]}	|}
8r	.
8r	.
{8ee-	{Pour
8dd-	prix
8an	du
=14	=14
(4cc	don
4b-)	|
8r	.
8dd-	que
8cc	j'aur-
8ff	-ai
=15	=15
(4ee-	fait,
4dd-)}	|}
8r	.
{8dd-	{Que
8cc	de
8b-	bai-
=16	=16
(4ff	-sers!
4ee-)}	|}
8r	.
{8ee-	{que
(64ee-q	de
8.aa-)	|
16cc	bai-
=17	=17
(2cc	-sers!
4b-)}	|}
4r	.
=18	=18
{4a-	{Si
8.a-	ma
16b-	Lu-
8a-	-cet-
8g}	-te}
4r	.
=19	=19
{4cc	{si
8.cc	ma
16dd-	Lu-
8cc	-cet-
8b-}	-te}
4r	.
=20	=20
8r	.
{8e-	{M'en
8a-	don-
8b-	-ne
8cc	deux
8dd-	pour
8ee-	un
8een	bou-
=21	=21
(4een	-quet,
8ff)}	|}
8r	.
8r	.
{8ff	{J'en
8.b-	au-
16a-	-rai
=22	=22
(4a-	dix,
4g)}	|}
8r	.
{8ff	{j'en
8gg	au-
8ff	-rai
=23	=23
8ee-	dix,
8r	.
[2.aa-	ah!
=24	=24
16aa-]}	|}
16r;	.
{8f	{J'en
8gn	au-
8a-	-rai
8b-	dix
8cc	pour
8dd-	la
8f	fau-
=25	=25
(2.cc	-vet-
4b-)	|
=26	=26
4a-}	-te."}
4r	.
2r	.
=27	=27
4r	.
4r	.
4r	.
4r	.
=28	=28
2r	.
2r	.
=29	=29
1r	.
=30	=30
2r	.
4r	.
{8.a-	{La
16a-	fau-
=31	=31
(8.dd-	-vet-
16a-	|
16ff	|
16dd-	|
16aa-	|
16ff)	|
8dd-	-te
8ff	dans
8.aa-	le
16ee-	val-
=32	=32
[4dd-	-lon
8dd-]}	|}
8r	.
4r	.
{8.a-	{A
16a-	lais-
=33	=33
2dd-	-se/
8dd-	son
8ff	a-
8.cc	-mi
16ee-	fi-
=34	=34
2ee-	-de\-
8dd-}	-le,}
8r	.
{8.ff	{Et
16dd-	tant
=35	=35
4b-	fait
8r	.
8dd-	tant
4gn	fait
8r	.
8b-	tant
=36	=36
4en}	fait}
4r	.
{8f	{que
8e-	de
8.g	sa
16f	pri-
=37	=37
8cc	-son
(16en	El-
16f)	|
(16g	-le
16an)	|
(16b-	s'e/-
16cc)	|
(16ddn	chap-
16een)	|
(16ff	-pe a\
16gg)	|
(16aan	ti-
16ff)	|
(16cc	-re
16an)	|
=38	=38
(4ddn	d'ai-
2.gg	|
16ffq	|
16aanq	|
16ggq)	|
=39	=39
4ff}	-le.}
4r	.
2r	.
=40	=40
{4gg-	{"Ah!"
8ff	dit
8ee-	le
8dd-	ber-
8cc	-ger
8.b-	de/-
16an	-so-
=41	=41
[2cc	-le,/
4cc]}	|}
8r	.
{8ff	{"A-
=42	=42
4.gg-	-dieu
8ff	les
8ee-	bai-
8dd-	-sers
8.cc	de
16b-	Lu-
=43	=43
4dd-	-cet-
4cc}	-te!}
8r	.
{8cc	{Tout
8dd-	mon
8ee-	bon-
=44	=44
(8een	-heur
[4.ff)	|
8ff]	|
8b-	s'est
8cc	en-
8dd-	-vo-
=45	=45
(8ff	-le/
4.ee-)}	|}
8r	.
{(8a-	{Sur
8b-)	|
8cc	les
=46	=46
4ee-	ai-
[4dd-	-les
8dd-]	|
8dd-	de
8.ee-	la
16ff-	fau-
=47	=47
4ff-	-vet-
4g}	-te."}
4r	.
8r	.
{8ee-	{Myr-
=48	=48
4.aa-	-til
8gg-	re-
8ff-	-tour-
8ee-	-ne au
8dd-	bois
8cc-	voi-
=49	=49
(4ee-	-sin,
4dd-)}	|}
4r	.
{4dd-	{Pleu-
=50	=50
4.ff-	-rant
8ee-	la
8dd-	per-
8cc-	-te
8b-	qu'il
8a-	a
=51	=51
[2cc-	fai-
(20cc-]	|
20dd-	|
20cc-	|
20b-	|
20a-	|
8.ee-	|
16cc-)	|
=52	=52
2b-}	-te;}
8r;	.
{8e-	{Soit
8.a-	par
16b-	ha-
=53	=53
2ccn	-sard,
8r	.
8ee-	Soit
8dd-	a\
8b-	des-
=54	=54
2a-}	-sein,}
4r	.
{8a-	{Dans
8cc	le
=55	=55
2ee-	bois
8ff	se
8ee-	trou-
8.g	-vait
16a-	Lu-
=56	=56
(4cc	-cet-
16ccq	|
16dd-q	|
16ccq	|
16b-q)	|
(16cc	|
16dd-	|
16ddn	|
16ee-	|
4b-)}	-te:}
4r	.
=57	=57
{4.a-	{Et
(16a-q	sen-
16ccq	|
8b-)	|
(8a-	-si-
8g)	-ble
8f	a\
8e-	ce
=58	=58
4cc	ga-
8.ee-	-ge
16dd-	de
(4cc	foi,
8b-)}	|}
8r	.
=59	=59
8r	.
{8e-	{El-
8a-	-le
8b-	sor-
8cc	-tit
8dd-	de
8ee-	sa
8een	re-
=60	=60
(4een	-trai-
8ff)}	-te,}
8r	.
8r	.
{8ff	{En
8b-	lui
8a-	di-
=61	=61
(4a-	-sant:
4gn)}	|}
8r	.
{8gg	{"Con-
8.cc	-so-
16b-	-le~
=62	=62
(4b-	~toi,
4a-)}	|}
8r	.
{8aa-	{Con-
8gg	-so-
8ff	-le~
=63	=63
8ff	~toi,
8ee-	Myr-
[4ee-	-til,
8ee-]	|
8een	con-
(16eenq	|
16ggq	|
8.ff)	-so-
16dd-	-le~
=64	=64
8cc}	~toi}
8r	.
{[2.aa-	{ah!
=65	=65
16aa-]	|
16r;	.
(8f	Tu
8gn	n'as
8a-	per-
8b-	-du
8cc	que
8.dd-	la
16ff)	fau-
=66	=66
(2.cc	-vet
4b-)	|
=67	=67
4a-}	-te!"}
4r	.
2r	.
*-	*-
